Sources/FrostedUI/Resources/Icons.xcassets/book12.imageset/book-12.svg

<svg width="12" height="12" viewBox="0 0 12 12" fill="none" xmlns="http://www.w3.org/2000/svg" data-fui-icon="true">
  <path
    d="M8.71875 1.06738C9.34893 1.06737 9.99371 1.18081 10.5547 1.42676C11.1137 1.67197 11.6394 2.0747 11.9268 2.67871C11.9745 2.77923 12 2.8897 12 3.00098V10.25C11.9998 10.5531 11.8172 10.8273 11.5371 10.9434C11.292 11.0448 11.0139 11.0087 10.8047 10.8545L10.7197 10.7812L10.6338 10.7012C10.1816 10.313 9.39255 10.0625 8.53125 10.0625C7.5953 10.0625 6.87755 10.3546 6.58594 10.7188L6.5293 10.7822C6.3896 10.9212 6.19931 11 6 11C5.77229 11 5.55639 10.8965 5.41406 10.7188C5.12245 10.3546 4.4047 10.0625 3.46875 10.0625C2.54996 10.0625 1.71345 10.3481 1.28027 10.7812L1.19531 10.8545C0.986119 11.0087 0.707963 11.0448 0.462891 10.9434C0.182837 10.8273 0.000195942 10.5531 0 10.25V3.00098C0 2.8897 0.0255207 2.77923 0.0732422 2.67871C0.360641 2.07471 0.886314 1.67197 1.44531 1.42676C2.00629 1.18082 2.65107 1.06737 3.28125 1.06738C4.19354 1.0674 5.24061 1.31262 6 1.90723C6.75939 1.31262 7.80646 1.06741 8.71875 1.06738ZM3.28125 2.56836C2.81787 2.56835 2.38421 2.65283 2.04688 2.80078C1.78142 2.9173 1.60586 3.05904 1.5 3.20312V8.91406C2.12813 8.67154 2.82169 8.5625 3.46875 8.5625C4.05467 8.5625 4.68244 8.65399 5.25 8.86523V3.25195C4.88764 2.85489 4.15376 2.56838 3.28125 2.56836ZM8.71875 2.56836C7.84625 2.56839 7.11236 2.85489 6.75 3.25195V8.86523C7.31756 8.65399 7.94533 8.5625 8.53125 8.5625C9.17831 8.5625 9.87187 8.67154 10.5 8.91406V3.20312C10.3941 3.05904 10.2186 2.9173 9.95312 2.80078C9.61579 2.65283 9.18213 2.56835 8.71875 2.56836Z"
    fill="currentColor"
  />
</svg>

<svg xmlns="http://www.w3.org/2000/svg" width="12" height="12" fill="none" data-fui-icon="true" viewBox="0 0 12 12"><path fill="currentColor" d="M8.719 1.067c.63 0 1.275.114 1.836.36.559.245 1.084.648 1.372 1.252.048.1.073.21.073.322v7.249a.751.751 0 0 1-1.195.604l-.085-.073-.086-.08c-.452-.388-1.241-.639-2.103-.639-.936 0-1.653.293-1.945.657l-.057.063a.75.75 0 0 1-1.115-.063c-.292-.364-1.01-.656-1.945-.656-.919 0-1.756.285-2.189.718l-.085.073A.751.751 0 0 1 0 10.25V3.001c0-.111.026-.222.073-.322.288-.604.813-1.007 1.372-1.252.561-.246 1.206-.36 1.836-.36.913 0 1.96.246 2.719.84.76-.594 1.806-.84 2.719-.84M3.28 2.568c-.463 0-.897.085-1.234.233-.266.116-.441.258-.547.402v5.711a5.6 5.6 0 0 1 1.969-.351c.586 0 1.213.091 1.781.302V3.252c-.362-.397-1.096-.684-1.969-.684m5.438 0c-.873 0-1.607.287-1.969.684v5.613a5.2 5.2 0 0 1 1.781-.303c.647 0 1.34.11 1.969.352v-5.71c-.106-.145-.281-.287-.547-.403-.337-.148-.77-.233-1.234-.233"/></svg>
